images/global/icons/utility/calendar/appointment.svg

<svg id="icon_x2F_Utility_x2F_Calendar_x2F_appointment-Layer_1" xmlns="http://www.w3.org/2000/svg" viewBox="0 0 48 48" enable-background="new 0 0 48 48"><title>icon/Utility/Calendar/appointment</title><g id="icon_x2F_Utility_x2F_Calendar_x2F_appointment-Symbols"><g id="icon_x2F_Utility_x2F_Calendar_x2F_appointment"><g id="icon_x2F_Utility_x2F_Calendar_x2F_appointment-Icon" transform="translate(11 13)"><g id="icon_x2F_Utility_x2F_Calendar_x2F_appointment-Mask"><path id="icon_x2F_Utility_x2F_Calendar_x2F_appointment-path-1_1_" d="M18.9 5.1c-.4 0-.6-.3-.6-.6V.6c0-.4.3-.6.6-.6.4 0 .6.3.6.6v3.8c0 .4-.3.7-.6.7zm-11.7 0c-.4 0-.7-.3-.7-.6V.6c0-.3.3-.6.7-.6.4 0 .7.3.7.6v3.8c-.1.4-.4.7-.7.7zm12.9-3.2h3C24.8 1.9 26 3 26 4.7v14.6c0 1.6-1.2 2.8-2.8 2.8H2.8C1.2 22 0 20.9 0 19.3V4.7C0 3 1.2 1.9 2.8 1.9h3v2.5c0 .7.6 1.3 1.3 1.3s1.3-.6 1.3-1.3V1.9h9.1v2.5c0 .7.6 1.3 1.3 1.3.7 0 1.3-.6 1.3-1.3V1.9zM3.9 16.1h1.3v1.3H3.9v-1.3zm0-4.7h1.3v1.3H3.9v-1.3zm0-4.2h1.3v1.3H3.9V7.2zm3.4 8.9h1.3v1.3H7.3v-1.3zm0-4.7h1.3v1.3H7.3v-1.3zm0-4.2h1.3v1.3H7.3V7.2zm3.3 8.9h1.3v1.3h-1.3v-1.3zm0-4.7h1.3v1.3h-1.3v-1.3zm0-4.2h1.3v1.3h-1.3V7.2zm3.5 8.9h1.3v1.3h-1.3v-1.3zm0-4.7h1.3v1.3h-1.3v-1.3zm0-4.2h1.3v1.3h-1.3V7.2zm3.3 8.9h1.3v1.3h-1.3v-1.3zm0-4.7h1.3v1.3h-1.3v-1.3zm0-4.2h1.3v1.3h-1.3V7.2zm3.4 8.9h1.3v1.3h-1.3v-1.3zm0-4.7h1.3v1.3h-1.3v-1.3zm0-4.2h1.3v1.3h-1.3V7.2z" fill="#384048"/></g><defs><filter id="icon_x2F_Utility_x2F_Calendar_x2F_appointment-Adobe_OpacityMaskFilter" filterUnits="userSpaceOnUse" x="-11" y="-13" width="48" height="48"><feColorMatrix values="1 0 0 0 0 0 1 0 0 0 0 0 1 0 0 0 0 0 1 0"/></filter></defs><mask maskUnits="userSpaceOnUse" x="-11" y="-13" width="48" height="48" id="icon_x2F_Utility_x2F_Calendar_x2F_appointment-mask-2"><g filter="url(#icon_x2F_Utility_x2F_Calendar_x2F_appointment-Adobe_OpacityMaskFilter)"><path id="icon_x2F_Utility_x2F_Calendar_x2F_appointment-path-1" d="M18.9 5.1c-.4 0-.6-.3-.6-.6V.6c0-.4.3-.6.6-.6.4 0 .6.3.6.6v3.8c0 .4-.3.7-.6.7zm-11.7 0c-.4 0-.7-.3-.7-.6V.6c0-.3.3-.6.7-.6.4 0 .7.3.7.6v3.8c-.1.4-.4.7-.7.7zm12.9-3.2h3C24.8 1.9 26 3 26 4.7v14.6c0 1.6-1.2 2.8-2.8 2.8H2.8C1.2 22 0 20.9 0 19.3V4.7C0 3 1.2 1.9 2.8 1.9h3v2.5c0 .7.6 1.3 1.3 1.3s1.3-.6 1.3-1.3V1.9h9.1v2.5c0 .7.6 1.3 1.3 1.3.7 0 1.3-.6 1.3-1.3V1.9zM3.9 16.1h1.3v1.3H3.9v-1.3zm0-4.7h1.3v1.3H3.9v-1.3zm0-4.2h1.3v1.3H3.9V7.2zm3.4 8.9h1.3v1.3H7.3v-1.3zm0-4.7h1.3v1.3H7.3v-1.3zm0-4.2h1.3v1.3H7.3V7.2zm3.3 8.9h1.3v1.3h-1.3v-1.3zm0-4.7h1.3v1.3h-1.3v-1.3zm0-4.2h1.3v1.3h-1.3V7.2zm3.5 8.9h1.3v1.3h-1.3v-1.3zm0-4.7h1.3v1.3h-1.3v-1.3zm0-4.2h1.3v1.3h-1.3V7.2zm3.3 8.9h1.3v1.3h-1.3v-1.3zm0-4.7h1.3v1.3h-1.3v-1.3zm0-4.2h1.3v1.3h-1.3V7.2zm3.4 8.9h1.3v1.3h-1.3v-1.3zm0-4.7h1.3v1.3h-1.3v-1.3zm0-4.2h1.3v1.3h-1.3V7.2z" fill="#fff"/></g></mask><g id="icon_x2F_Utility_x2F_Calendar_x2F_appointment-Color_x2F_Grayscale_x2F_Night-Sky" mask="url(#icon_x2F_Utility_x2F_Calendar_x2F_appointment-mask-2)"><path fill="#111" d="M0 0h48v48H0z" transform="translate(-11 -13)" id="icon_x2F_Utility_x2F_Calendar_x2F_appointment-Swatch"/></g></g></g></g></svg>

<?xml version="1.0" encoding="utf-8"?>
<!-- Generator: Adobe Illustrator 21.0.2, SVG Export Plug-In . SVG Version: 6.00 Build 0)  -->
<svg version="1.1" id="icon_x2F_Utility_x2F_Calendar_x2F_appointment-Layer_1" xmlns="http://www.w3.org/2000/svg" xmlns:xlink="http://www.w3.org/1999/xlink" x="0px" y="0px"
	 viewBox="0 0 48 48" style="enable-background:new 0 0 48 48;" xml:space="preserve">
<title>icon/Utility/Calendar/appointment</title>
<desc>Created with Sketch.</desc>
<g id="icon_x2F_Utility_x2F_Calendar_x2F_appointment-Symbols">
	<g id="icon_x2F_Utility_x2F_Calendar_x2F_appointment">
		<g id="icon_x2F_Utility_x2F_Calendar_x2F_appointment-Icon" transform="translate(11.000000, 13.000000)">
			<g id="icon_x2F_Utility_x2F_Calendar_x2F_appointment-Mask">
				<path id="icon_x2F_Utility_x2F_Calendar_x2F_appointment-path-1_1_" style="fill:#384048;" d="M18.9,5.1c-0.4,0-0.6-0.3-0.6-0.6V0.6c0-0.4,0.3-0.6,0.6-0.6
					c0.4,0,0.6,0.3,0.6,0.6v3.8C19.5,4.8,19.2,5.1,18.9,5.1z M7.2,5.1c-0.4,0-0.7-0.3-0.7-0.6V0.6C6.5,0.3,6.8,0,7.2,0
					c0.4,0,0.7,0.3,0.7,0.6v3.8C7.8,4.8,7.5,5.1,7.2,5.1z M20.1,1.9h3C24.8,1.9,26,3,26,4.7v14.6c0,1.6-1.2,2.8-2.8,2.8H2.8
					C1.2,22,0,20.9,0,19.3V4.7C0,3,1.2,1.9,2.8,1.9h3v2.5c0,0.7,0.6,1.3,1.3,1.3s1.3-0.6,1.3-1.3V1.9h9.1v2.5c0,0.7,0.6,1.3,1.3,1.3
					c0.7,0,1.3-0.6,1.3-1.3V1.9z M3.9,16.1h1.3v1.3H3.9V16.1z M3.9,11.4h1.3v1.3H3.9V11.4z M3.9,7.2h1.3v1.3H3.9V7.2z M7.3,16.1h1.3
					v1.3H7.3V16.1z M7.3,11.4h1.3v1.3H7.3V11.4z M7.3,7.2h1.3v1.3H7.3V7.2z M10.6,16.1h1.3v1.3h-1.3V16.1z M10.6,11.4h1.3v1.3h-1.3
					V11.4z M10.6,7.2h1.3v1.3h-1.3V7.2z M14.1,16.1h1.3v1.3h-1.3V16.1z M14.1,11.4h1.3v1.3h-1.3V11.4z M14.1,7.2h1.3v1.3h-1.3V7.2z
					 M17.4,16.1h1.3v1.3h-1.3V16.1z M17.4,11.4h1.3v1.3h-1.3V11.4z M17.4,7.2h1.3v1.3h-1.3V7.2z M20.8,16.1h1.3v1.3h-1.3V16.1z
					 M20.8,11.4h1.3v1.3h-1.3V11.4z M20.8,7.2h1.3v1.3h-1.3V7.2z"/>
			</g>
			<defs>
				<filter id="icon_x2F_Utility_x2F_Calendar_x2F_appointment-Adobe_OpacityMaskFilter" filterUnits="userSpaceOnUse" x="-11" y="-13" width="48" height="48">
					<feColorMatrix  type="matrix" values="1 0 0 0 0  0 1 0 0 0  0 0 1 0 0  0 0 0 1 0"/>
				</filter>
			</defs>
			<mask maskUnits="userSpaceOnUse" x="-11" y="-13" width="48" height="48" id="icon_x2F_Utility_x2F_Calendar_x2F_appointment-mask-2">
				<g style="filter:url(#icon_x2F_Utility_x2F_Calendar_x2F_appointment-Adobe_OpacityMaskFilter);">
					<path id="icon_x2F_Utility_x2F_Calendar_x2F_appointment-path-1" style="fill:#FFFFFF;" d="M18.9,5.1c-0.4,0-0.6-0.3-0.6-0.6V0.6c0-0.4,0.3-0.6,0.6-0.6c0.4,0,0.6,0.3,0.6,0.6
						v3.8C19.5,4.8,19.2,5.1,18.9,5.1z M7.2,5.1c-0.4,0-0.7-0.3-0.7-0.6V0.6C6.5,0.3,6.8,0,7.2,0c0.4,0,0.7,0.3,0.7,0.6v3.8
						C7.8,4.8,7.5,5.1,7.2,5.1z M20.1,1.9h3C24.8,1.9,26,3,26,4.7v14.6c0,1.6-1.2,2.8-2.8,2.8H2.8C1.2,22,0,20.9,0,19.3V4.7
						C0,3,1.2,1.9,2.8,1.9h3v2.5c0,0.7,0.6,1.3,1.3,1.3s1.3-0.6,1.3-1.3V1.9h9.1v2.5c0,0.7,0.6,1.3,1.3,1.3c0.7,0,1.3-0.6,1.3-1.3
						V1.9z M3.9,16.1h1.3v1.3H3.9V16.1z M3.9,11.4h1.3v1.3H3.9V11.4z M3.9,7.2h1.3v1.3H3.9V7.2z M7.3,16.1h1.3v1.3H7.3V16.1z
						 M7.3,11.4h1.3v1.3H7.3V11.4z M7.3,7.2h1.3v1.3H7.3V7.2z M10.6,16.1h1.3v1.3h-1.3V16.1z M10.6,11.4h1.3v1.3h-1.3V11.4z
						 M10.6,7.2h1.3v1.3h-1.3V7.2z M14.1,16.1h1.3v1.3h-1.3V16.1z M14.1,11.4h1.3v1.3h-1.3V11.4z M14.1,7.2h1.3v1.3h-1.3V7.2z
						 M17.4,16.1h1.3v1.3h-1.3V16.1z M17.4,11.4h1.3v1.3h-1.3V11.4z M17.4,7.2h1.3v1.3h-1.3V7.2z M20.8,16.1h1.3v1.3h-1.3V16.1z
						 M20.8,11.4h1.3v1.3h-1.3V11.4z M20.8,7.2h1.3v1.3h-1.3V7.2z"/>
				</g>
			</mask>
			<g id="icon_x2F_Utility_x2F_Calendar_x2F_appointment-Color_x2F_Grayscale_x2F_Night-Sky" style="mask:url(#icon_x2F_Utility_x2F_Calendar_x2F_appointment-mask-2);">
				<g id="icon_x2F_Utility_x2F_Calendar_x2F_appointment-Swatch" transform="translate(-11.000000, -13.000000)">
					<rect style="fill:#111111;" width="48" height="48"/>
				</g>
			</g>
		</g>
	</g>
</g>
</svg>
